svg/fluentui-system-icons/ic_fluent_person_question_mark_20_regular.svg

<svg width="20" height="20" viewBox="0 0 20 20" fill="none" xmlns="http://www.w3.org/2000/svg">
<path d="M9 2C6.79086 2 5 3.79086 5 6C5 8.20914 6.79086 10 9 10C11.2091 10 13 8.20914 13 6C13 3.79086 11.2091 2 9 2ZM6 6C6 4.34315 7.34315 3 9 3C10.6569 3 12 4.34315 12 6C12 7.65685 10.6569 9 9 9C7.34315 9 6 7.65685 6 6ZM4.00873 11C2.90315 11 2 11.8869 2 13C2 14.6912 2.83281 15.9663 4.13499 16.7966C5.41697 17.614 7.14526 18 9 18C9.41085 18 9.8155 17.9811 10.2105 17.9427C9.97298 17.6472 9.7654 17.3266 9.59233 16.9855C9.39798 16.9951 9.20041 17 9 17C7.26489 17 5.74318 16.636 4.67262 15.9534C3.62226 15.2837 3 14.3088 3 13C3 12.4467 3.44786 12 4.00873 12L9.59971 12C9.7826 11.6422 10.0035 11.3071 10.2572 11L4.00873 11ZM14.5 19C12.0147 19 10 16.9853 10 14.5C10 12.0147 12.0147 10 14.5 10C16.9853 10 19 12.0147 19 14.5C19 16.9853 16.9853 19 14.5 19ZM15.1244 17.0049C15.1244 16.66 14.8448 16.3804 14.4999 16.3804C14.155 16.3804 13.8754 16.66 13.8754 17.0049C13.8754 17.3498 14.155 17.6294 14.4999 17.6294C14.8448 17.6294 15.1244 17.3498 15.1244 17.0049ZM16.3534 13.4529C16.3534 12.3492 15.531 11.5034 14.5 11.5034C13.452 11.5034 12.6357 12.3208 12.6466 13.4577C12.6492 13.7339 12.8752 13.9556 13.1514 13.9529C13.4275 13.9503 13.6492 13.7243 13.6465 13.4481C13.641 12.8691 14.0062 12.5034 14.5 12.5034C14.9723 12.5034 15.3534 12.8953 15.3534 13.4529C15.3534 13.6547 15.2822 13.7679 14.9937 13.9968L14.7157 14.2118C14.2099 14.6161 14 14.9294 13.9999 15.5003C13.9999 15.7764 14.2238 16.0003 14.4999 16.0003C14.7454 16.0003 14.9495 15.8234 14.9919 15.5902L15.0034 15.4341C15.0202 15.2863 15.103 15.1804 15.3487 14.9858L15.6257 14.7715C16.1391 14.3607 16.3534 14.0387 16.3534 13.4529Z" fill="#212121"/>
</svg>

<svg xmlns="http://www.w3.org/2000/svg" width="20" height="20"><path d="M9 2a4 4 0 1 0 0 8 4 4 0 0 0 0-8ZM6 6a3 3 0 1 1 6 0 3 3 0 0 1-6 0Zm-1.991 5A2.001 2.001 0 0 0 2 13c0 1.691.833 2.966 2.135 3.797C5.417 17.614 7.145 18 9 18c.41 0 .816-.019 1.21-.057a5.501 5.501 0 0 1-.618-.958C9.398 16.995 9.2 17 9 17c-1.735 0-3.257-.364-4.327-1.047C3.623 15.283 3 14.31 3 13c0-.553.448-1 1.009-1h5.59c.184-.358.405-.693.658-1H4.01ZM14.5 19a4.5 4.5 0 1 1 0-9 4.5 4.5 0 0 1 0 9Zm.624-1.995a.625.625 0 1 0-1.249 0 .625.625 0 0 0 1.25 0Zm1.23-3.552c0-1.104-.823-1.95-1.854-1.95-1.048 0-1.864.818-1.853 1.955a.5.5 0 1 0 1-.01c-.006-.579.36-.945.853-.945.472 0 .853.392.853.95 0 .202-.07.315-.36.544l-.277.215c-.506.404-.716.717-.716 1.288a.5.5 0 0 0 .992.09l.011-.156c.017-.148.1-.254.346-.448l.277-.215c.513-.41.727-.732.727-1.318Z"/></svg>
